X:63
T:Ship New Rigged. LIT.063
M:6/8
Q:3/8=120
L:1/8
B:Wm. Litten MS, 1802
Z:Village Music Project 2017 Anne Wride
K:D
A | d2 d def | d2 d def | ecA AcA | ecA AcA |
d2 d def | d2 d def | egf edc | d3 d2 :|
|:f/g/ | a2f a2f | d2 d dga | b2g b2g | e2e e2f/g/ |
a2fa2f | b2gb2g | fed edc | d3 d2 :|

